X: 41171
T: Tripping To The Well
R: polka
M: 2/4
K: Gmajor
|:G>A BG|EG ED|G>A Bd|BA Ad|
G>A BG|EG ED|B>G D/E/F/G/|1 AG GA:|2 AG GB/c/||
|:dB G>A|BG ED|dB G>A|BA AB/c/|
dB G>A|BG ED|BG D/E/F/G/|1 AG GB/c/:|2 AG GA||

